tools/download-figma-icons/icons/outlined-medium/glass-of-water.svg

<svg width="24" height="24" viewBox="0 0 24 24" fill="none" xmlns="http://www.w3.org/2000/svg">
<path d="M20.8126 0.255C20.6701 0.0975 20.4676 0 20.2501 0H3.7501C3.5326 0 3.3301 0.09 3.1876 0.255C3.0451 0.4125 2.9776 0.6225 3.0001 0.84L5.6851 23.34C5.7301 23.715 6.0526 24 6.4276 24H17.5576C17.9401 24 18.2551 23.715 18.3001 23.34L20.9926 0.84C21.0151 0.63 20.9476 0.4125 20.8051 0.255H20.8126ZM19.4026 1.5L18.8401 6.225C18.0526 5.8575 17.0851 5.535 15.5776 5.535C13.6051 5.535 12.5701 6.0675 11.6551 6.54C10.7776 6.99 10.0276 7.38 8.4151 7.38C6.8026 7.38 6.1126 7.005 5.2876 6.5775C5.2576 6.5625 5.2276 6.5475 5.1976 6.5325L4.5976 1.5075H19.4101L19.4026 1.5ZM16.8976 22.5H7.1026L5.4076 8.3025C6.1351 8.625 7.0201 8.88 8.4151 8.88C10.3876 8.88 11.4226 8.3475 12.3376 7.875C13.2151 7.425 13.9651 7.035 15.5776 7.035C17.0626 7.035 17.8576 7.4025 18.6451 7.8075L16.8901 22.5H16.8976Z" fill="black"/>
</svg>

<svg xmlns="http://www.w3.org/2000/svg" width="24" height="24" fill="none" viewBox="0 0 24 24"><path fill="currentColor" d="M20.813.255A.76.76 0 0 0 20.25 0H3.75c-.217 0-.42.09-.562.255A.75.75 0 0 0 3 .84l2.685 22.5c.045.375.368.66.743.66h11.13a.747.747 0 0 0 .742-.66L20.993.84a.76.76 0 0 0-.188-.585zM19.403 1.5l-.563 4.725c-.787-.367-1.755-.69-3.262-.69-1.973 0-3.008.532-3.923 1.005-.877.45-1.627.84-3.24.84-1.612 0-2.302-.375-3.127-.803l-.09-.045-.6-5.024H19.41zm-2.505 21H7.103L5.408 8.303c.727.322 1.612.577 3.007.577 1.973 0 3.008-.533 3.923-1.005.877-.45 1.627-.84 3.24-.84 1.485 0 2.28.367 3.067.773L16.89 22.5z"/></svg>
